X:1
T:Corgarff Castle [2]
T:Corgarff Castle [2]
T:Alexander Walker
C:Alexander Walker
L:1/8
M:4/4
K:A
V:1 treble 
V:1
 C | A,<A,E>A, F>A,E>C | A,<A, E>c d/c/B/A/ G/F/E/D/ | C<A,E>A, F>A,E>A | G<EB>G (A2 A) :| f | %6
 e>A d/c/B/A/ e<Ac>A | e>c d/c/B/A/ B<EG>B | e>A d/c/B/A/ e<Ac>B | A>FE<A, A,3 c | %10
 e>A d/c/B/A/ e<Ac>A | e>A e/d/B/A/ B<EG>B | c<ee>a d<ff>b | g<eb>f (a2 a) || %14

